lib/svgs/processon.svg

<svg xmlns="http://www.w3.org/2000/svg" viewBox="0 0 20 20">
    <path fill="#000" fill-rule="evenodd" d="M15.25,3 L4.75,3 C3.79296,3 3,3.79296 3,4.75 L3,15.25 C3,16.20704 3.79296,17 4.75,17 L15.25,17 C16.20704,17 17,16.20704 17,15.25 L17,4.75 C17,3.79296 16.20704,3 15.25,3 L15.25,3 L15.25,3 Z M9.20704,12.73434 C8.7148,13.25388 8.00388,13.5 7.04684,13.5 C6.0898,13.5 5.37888,13.25388 4.88678,12.73434 C4.20316,12.10546 3.875,11.17572 3.875,10 C3.875,8.79684 4.20316,7.8671 4.88678,7.26552 C5.37888,6.74598 6.0898,6.5 7.04684,6.5 C8.00388,6.5 8.7148,6.74598 9.20704,7.26552 C9.89066,7.8671 10.21868,8.79684 10.21868,10 C10.21868,11.17572 9.89066,12.10546 9.20704,12.73434 L9.20704,12.73434 L9.20704,12.73434 Z M7.04684,7.67572 C6.5,7.67572 6.0625,7.8671 5.73434,8.2773 C5.40632,8.6875 5.24224,9.26164 5.24224,10 C5.24224,10.73822 5.40632,11.3125 5.73434,11.72256 C6.0625,12.13276 6.5,12.32414 7.04684,12.32414 C7.59368,12.32414 8.03132,12.13276 8.35934,11.72256 C8.6602,11.3125 8.82428,10.73822 8.82428,10 C8.82428,9.26164 8.6602,8.6875 8.35934,8.2773 C8.03132,7.8671 7.59368,7.67572 7.04684,7.67572 L7.04684,7.67572 L7.04684,7.67572 Z M15.60546,13.30862 L14.29296,13.30862 L14.29296,10.32802 C14.29296,10.08204 14.26566,9.89052 14.18362,9.75388 C14.04684,9.50776 13.82816,9.37098 13.4727,9.37098 C13.0352,9.37098 12.73434,9.5625 12.57026,9.91796 C12.48822,10.10934 12.46092,10.35546 12.46092,10.65618 L12.46092,13.30862 L11.17572,13.30862 L11.17572,8.44138 L12.40632,8.44138 L12.40632,9.1523 C12.57026,8.90618 12.73434,8.7148 12.87112,8.60546 C13.14454,8.41408 13.4727,8.3046 13.88276,8.3046 C14.375,8.3046 14.7852,8.44138 15.11322,8.7148 C15.44138,8.96092 15.60546,9.39842 15.60546,10.0273 L15.60546,13.30862 L15.60546,13.30862 L15.60546,13.30862 Z"/>
</svg>

<svg xmlns="http://www.w3.org/2000/svg" viewBox="0 0 20 20">
    <path fill="#000" fill-rule="evenodd" d="M15.25 3H4.75C3.793 3 3 3.793 3 4.75v10.5c0 .957.793 1.75 1.75 1.75h10.5c.957 0 1.75-.793 1.75-1.75V4.75C17 3.793 16.207 3 15.25 3m-6.043 9.734c-.492.52-1.203.766-2.16.766-.957 0-1.668-.246-2.16-.766-.684-.629-1.012-1.558-1.012-2.734 0-1.203.328-2.133 1.012-2.734.492-.52 1.203-.766 2.16-.766.957 0 1.668.246 2.16.766.684.601 1.012 1.53 1.012 2.734 0 1.176-.328 2.105-1.012 2.734m-2.16-5.058c-.547 0-.984.191-1.313.601-.328.41-.492.985-.492 1.723 0 .738.164 1.313.492 1.723.329.41.766.601 1.313.601.547 0 .984-.191 1.312-.601.301-.41.465-.985.465-1.723 0-.738-.164-1.313-.465-1.723a1.584 1.584 0 0 0-1.312-.601m8.558 5.633h-1.312v-2.981a1.13 1.13 0 0 0-.11-.574c-.136-.246-.355-.383-.71-.383-.438 0-.739.191-.903.547-.082.191-.11.437-.11.738v2.653h-1.284V8.44h1.23v.711c.164-.246.328-.437.465-.547.274-.19.602-.3 1.012-.3.492 0 .902.136 1.23.41.328.246.492.683.492 1.312v3.282"/>
</svg>
